X: 553
T: the Federalist
N: The title isn't very clear
%R: reel
Z: 2018 John Chambers <jc:trillian.mit.edu>
B: John Treat - "Gamut for the Fifes", 1779, p.55 #3
F: https://archive.org/details/GamutFortheFifes
M: C
L: 1/8
K: D
% - - - - - - - - - - - - - - - - - - - - - - - - -
|:\
D2FD dAFD | E2GE ecAE | FDGE AFBG | GFED CECA, |\
D2FD dAFD | E2GE ecAE | FDGE AFBG | FEDC D4 :|
|:\
A2FG ABcd | B2GA B2dB | AFAF dcdB | AFED E4 |\
A2FG ABcd | B2GA B2d2 | c2AB cdef | gedc d4 :|
% - - - - - - - - - - - - - - - - - - - - - - - - -
